X:1
T:Title
%%score { ( 1 3 ) | 2 }
L:1/8
M:4/4
K:C
V:1 treble nm="Grand Piano"
V:3 treble 
V:2 bass 
V:1
 z4 z2[Q:1/4=100] [EG]2 | [Ec]3 [Ec] [CGB]2 [CFA]2 | [CEG]4 [G,CE]2 z2 | z4 z2 .E2 |[M:3/4] E6 | %5
[M:1/4] [EG]2 |[M:4/4] [Ec]3 [Ec] [CGB]2 [CFA]2 | [CEG]4 [G,CE]2 z2 |[M:1/4] z [CEG] | %9
[M:4/4] [EG]2 G2 [CFA]2 [B,FG]2 |[M:3/4] [CEc]6 |[M:1/4] G>G |[M:4/4] c3 d cBAG | %13
 [G,EG]2 [Ge]4 [Ec]2 | B2 d4 d2 |[M:3/4] [Ec]2 [Ge]4 |[M:1/4] G>G |[M:4/4] c3 d cBAG | %18
 [G,EG]2 [Ge]4 [Ec]2 | B2 d4 d2 |[M:7/8] d3 [Ec]- [Ec]3 |] %21
V:2
 z4 z2 [C,C]2 | [C,G,]3 [C,G,] E,2 F,2 | C,4 C,2 z2 | C,3 C, F,,G,,A,,B,, |[M:3/4] [C,G,C]6 | %5
[M:1/4] [C,C]2 |[M:4/4] [C,G,]3 [C,G,] E,2 F,2 | C,4 C,2 z2 |[M:1/4] z C, | %9
[M:4/4] C,2 E,2 F,2 G,2 |[M:3/4] C,6 |[M:1/4] G,>G, |[M:4/4][K:treble] C3 D CB,A,[K:bass]G, | %13
 C,2 [C,C]4 [C,C]2 | [G,DF]2 [G,B,F]4 [G,B,F]2 |[M:3/4][K:bass] [C,C]2 [C,C]4 |[M:1/4] G,>G, | %17
[M:4/4] C3 D CB,A,G, | C,2 [C,C]4 [C,C]2 | [G,DF]2 [G,B,F]4 [G,B,F]2 | %20
[M:7/8] [G,F]3[K:bass] [C,G,]- [C,G,]3 |] %21
V:3
 x8 | x8 | x8 | [CEG]3 [CEG] [CFA]2 [G,G]-[G,DG] |[M:3/4] x6 |[M:1/4] x2 |[M:4/4] x8 | x8 | %8
[M:1/4] x2 |[M:4/4] C4 z4 |[M:3/4] x6 |[M:1/4] x2 |[M:4/4] x8 | x8 | x8 |[M:3/4] x6 |[M:1/4] x2 | %17
[M:4/4] x8 | x8 | x8 |[M:7/8] x7 |] %21

